src/icons/svgs/16/smile-rotate-right.svg

<svg width="16" height="16" viewBox="0 0 16 16" fill="none" xmlns="http://www.w3.org/2000/svg">
<g clip-path="url(#clip0)">
<path fill-rule="evenodd" clip-rule="evenodd" d="M8.00001 1.10001C9.87301 1.10001 11.65 1.85901 12.948 3.15201L14 2L15.4747 6.42406C15.6066 6.81987 15.2244 7.19364 14.8316 7.05285L10.5 5.5L11.535 4.56501C10.607 3.64201 9.33801 3.10001 8.00001 3.10001C5.24301 3.10001 3.00001 5.34301 3.00001 8.10001C3.00001 8.822 3.15172 9.52173 3.44439 10.1651C3.67312 10.6679 3.58414 11.2906 3.13663 11.6144C2.68904 11.9383 2.05616 11.8404 1.79899 11.3514C1.27419 10.3535 1.00001 9.24617 1.00001 8.10001C1.00001 4.24001 4.14101 1.10001 8.00001 1.10001ZM14.6672 10.2357C14.8358 9.70987 14.4612 9.19088 13.9166 9.09952C13.372 9.00815 12.8649 9.38145 12.6664 9.89678C12.6068 10.0515 12.5395 10.2033 12.4648 10.3514C12.2158 10.8449 12.2792 11.4718 12.7133 11.8141C13.1467 12.1559 13.7823 12.0845 14.0588 11.6067C14.3101 11.1727 14.5142 10.7125 14.6672 10.2357ZM11.5487 12.9381C11.8763 13.3831 11.7834 14.0165 11.2957 14.2763C10.9248 14.474 10.5361 14.6383 10.1362 14.7667C9.61067 14.9354 9.09177 14.5618 9.00013 14.0175C8.90843 13.4728 9.28182 12.9657 9.79716 12.767C9.89831 12.7279 9.9982 12.6857 10.0966 12.6402C10.5978 12.4085 11.2214 12.4935 11.5487 12.9381ZM7.00006 14.0162C6.90894 14.561 6.38984 14.9357 5.86387 14.7669C5.41547 14.6229 4.98161 14.4336 4.57048 14.2025C4.08916 13.9319 4.00978 13.2971 4.34627 12.8593C4.68294 12.4213 5.30856 12.3496 5.80482 12.5924C5.93492 12.6561 6.06769 12.714 6.20266 12.7661C6.71776 12.9649 7.09114 13.4716 7.00006 14.0162ZM7.125 6.875C7.125 7.35825 6.73325 7.75 6.25 7.75C5.76675 7.75 5.375 7.35825 5.375 6.875C5.375 6.39175 5.76675 6 6.25 6C6.73325 6 7.125 6.39175 7.125 6.875ZM9.75 7.75C10.2332 7.75 10.625 7.35825 10.625 6.875C10.625 6.39175 10.2332 6 9.75 6C9.26675 6 8.875 6.39175 8.875 6.875C8.875 7.35825 9.26675 7.75 9.75 7.75ZM6 9L10 9C10.5523 9 11 9.44772 11 10C11 10.5523 10.5523 11 10 11L6 11C5.44772 11 5 10.5523 5 10C5 9.44772 5.44772 9 6 9Z" fill="black"/>
</g>
<defs>
<clipPath id="clip0">
<rect width="16" height="16" fill="white"/>
</clipPath>
</defs>
</svg>

<svg width="16" height="16" viewBox="0 0 16 16" xmlns="http://www.w3.org/2000/svg">
    <g clip-path="url(#a)">
        <path fill-rule="evenodd" clip-rule="evenodd" d="M8 1.1c1.873 0 3.65.759 4.948 2.052L14 2l1.475 4.424a.5.5 0 0 1-.643.629L10.5 5.5l1.035-.935A5.023 5.023 0 0 0 8 3.1a5.006 5.006 0 0 0-4.556 7.065c.23.503.14 1.126-.307 1.45-.448.323-1.08.225-1.338-.264A6.958 6.958 0 0 1 1 8.1c0-3.86 3.141-7 7-7zm6.667 9.136c.169-.526-.206-1.045-.75-1.136-.545-.092-1.052.281-1.25.797-.06.155-.127.306-.202.454-.25.494-.186 1.12.248 1.463.434.342 1.07.27 1.346-.207.251-.434.455-.894.608-1.371zm-3.118 2.702c.327.445.234 1.079-.253 1.338a6.99 6.99 0 0 1-1.16.49c-.525.17-1.044-.204-1.136-.748-.092-.545.282-1.052.797-1.251.101-.04.201-.081.3-.127.5-.232 1.124-.147 1.452.298zM7 14.016c-.091.545-.61.92-1.136.75a7.025 7.025 0 0 1-1.294-.563c-.48-.271-.56-.906-.224-1.344.337-.438.963-.51 1.459-.267.13.064.263.122.398.174.515.199.888.706.797 1.25zm.125-7.141a.875.875 0 1 1-1.75 0 .875.875 0 0 1 1.75 0zm2.625.875a.875.875 0 1 0 0-1.75.875.875 0 0 0 0 1.75zM6 9h4a1 1 0 1 1 0 2H6a1 1 0 1 1 0-2z"/>
    </g>
    <defs>
        <clipPath id="a">
            <path fill="#fff" d="M0 0h16v16H0z"/>
        </clipPath>
    </defs>
</svg>
